X:43
%%titlespace -25
%%musicspace -20
T: Frank's
R: reel
M: 4/4
L: 1/8
K: Amaj
cB |:"A"AcBA "D"F2AF|"A"EFAB cABc |"D"d3f ecA2 |"D"faec "E"BdcB |
"A"AcBA "D"F2AF|"A"EFAB cABc |"D"d3f "A"ecAc |"E"BAG2 "A"A4 :|
"A"aAAg AAfA |ef2e cABc |"D"d3f ecAc |"E"Bcde fefg |
"A"aAAg AAfA |ef2e cABc |"D"d3f ecAc |"E"BAGB "A"Aefg |
"A"aAAg AAfA |ef2e cABc |"D"d3f ecA2 |"D"faec "E"BdcB|
"A"AcBA "D"F2AF |"A"EFAB cABc |"D"d3f "A"ecAc |"E"BAGB "A"A4 |]

%%newpage
%%scale 0.8

